X: 24385
T: Lovely Joan
R: reel
M: 4/4
K: Edorian
E2|B3 c d2 FA|AGED E4|G3 A GFED|A2 AG E4|
B3 c d2 ed|cBAF A3 F|GABc d FA|AGED E:|

